X:1967
T:Boyne Water
M:C
K:Em
g2|\
e3d e2g2| d>edB G2(AB)| c2BA e2dB| A3G D2g2|\
edef g2fe| dcBA G2AB| c2BA e2dB| A3G E2::
F2|\
G2ga g3g| gage d2g2| e2 ab a3b| abag e3f|\
gfga "tr"g2 fe|\ dcBA G2AB| c2BA e2dB| "tr"A3G E2:|
